tn/bracket.svg

<svg viewBox="0 0 15 15" fill="none" xmlns="http://www.w3.org/2000/svg" height="1em" width="1em">
  <path fill-rule="evenodd" clip-rule="evenodd" d="M3.5 1C2.67157 1 2 1.67157 2 2.5V12.5C2 13.3284 2.67157 14 3.5 14H5V15H3.5C2.11929 15 1 13.8807 1 12.5V8H0V7H1V2.5C1 1.11929 2.11929 0 3.5 0H5V1H3.5ZM10 0H11.5C12.8807 0 14 1.11929 14 2.5V7H15V8H14V12.5C14 13.8807 12.8807 15 11.5 15H10V14H11.5C12.3284 14 13 13.3284 13 12.5V2.5C13 1.67157 12.3284 1 11.5 1H10V0Z" fill="black"/>
</svg>

<svg viewBox="0 0 15 15" fill="none" xmlns="http://www.w3.org/2000/svg" height="1em" width="1em">
  <path fill-rule="evenodd" clip-rule="evenodd" d="M3.5 1A1.5 1.5 0 0 0 2 2.5v10A1.5 1.5 0 0 0 3.5 14H5v1H3.5A2.5 2.5 0 0 1 1 12.5V8H0V7h1V2.5A2.5 2.5 0 0 1 3.5 0H5v1H3.5ZM10 0h1.5A2.5 2.5 0 0 1 14 2.5V7h1v1h-1v4.5a2.5 2.5 0 0 1-2.5 2.5H10v-1h1.5a1.5 1.5 0 0 0 1.5-1.5v-10A1.5 1.5 0 0 0 11.5 1H10V0Z" fill="#000"/>
</svg>
